assets/img/email.svg

<svg width="24" height="24" viewBox="0 0 24 24" fill="none" xmlns="http://www.w3.org/2000/svg">
<path fill-rule="evenodd" clip-rule="evenodd" d="M22 12C22 17.5228 17.5228 22 12 22C6.47715 22 2 17.5228 2 12C2 6.47715 6.47715 2 12 2C17.5228 2 22 6.47715 22 12ZM6.34372 9.98652C6.52082 10.1058 7.05466 10.4601 7.94526 11.0492C8.8359 11.6383 9.51818 12.0919 9.99215 12.41C10.0442 12.4449 10.1549 12.5207 10.3241 12.6376C10.4934 12.7545 10.634 12.8489 10.7459 12.921C10.8579 12.993 10.9933 13.0739 11.1523 13.1633C11.3111 13.2527 11.4609 13.3199 11.6015 13.3644C11.7422 13.4093 11.8724 13.4315 11.9921 13.4315H12H12.0079C12.1276 13.4315 12.2579 13.4093 12.3985 13.3644C12.5391 13.3199 12.689 13.2526 12.8477 13.1633C13.0066 13.0738 13.142 12.993 13.254 12.921C13.366 12.8489 13.5065 12.7545 13.6758 12.6376C13.845 12.5206 13.9558 12.4449 14.0079 12.41C14.487 12.0919 15.7058 11.284 17.6641 9.98636C18.0443 9.73292 18.3619 9.4271 18.6171 9.06913C18.8724 8.71131 19 8.33593 19 7.94322C19 7.61505 18.8762 7.33412 18.6288 7.10048C18.3814 6.86678 18.0884 6.75 17.7499 6.75H6.24995C5.84893 6.75 5.54032 6.87924 5.32418 7.13773C5.10806 7.39626 5 7.71942 5 8.10717C5 8.42038 5.14328 8.75979 5.42969 9.12518C5.71608 9.4906 6.02086 9.77774 6.34372 9.98652ZM14.3281 13.3572C15.2134 12.7457 16.5105 11.888 18.2186 10.7844C18.5157 10.5906 18.776 10.3741 19 10.1356V16.0567C19 16.385 18.8777 16.6657 18.6328 16.8994C18.388 17.1332 18.0937 17.25 17.7501 17.25H6.25003C5.90626 17.25 5.61193 17.1332 5.36717 16.8994C5.12234 16.6657 5 16.385 5 16.0567V10.1356C5.22917 10.3792 5.49219 10.5956 5.78914 10.7844C7.67453 12.0074 8.96877 12.8651 9.67194 13.3572C9.96878 13.566 10.2097 13.7289 10.3945 13.8457C10.5794 13.9625 10.8256 14.0818 11.1328 14.2036C11.44 14.3255 11.7265 14.3863 11.9922 14.3863H12H12.008C12.2737 14.3863 12.56 14.3255 12.8672 14.2036C13.1746 14.0818 13.4205 13.9625 13.6055 13.8457C13.7904 13.7289 14.0313 13.566 14.3281 13.3572Z" fill="white"/>
</svg>

<svg width="24" height="24" fill="none" xmlns="http://www.w3.org/2000/svg"><path fill-rule="evenodd" clip-rule="evenodd" d="M22 12c0 5.523-4.477 10-10 10S2 17.523 2 12 6.477 2 12 2s10 4.477 10 10zM6.344 9.987c.177.119.71.473 1.601 1.062.89.59 1.573 1.043 2.047 1.361.052.035.163.11.332.228.17.117.31.21.422.283.112.072.247.153.406.242.16.09.309.157.45.201.14.045.27.067.39.067h.016c.12 0 .25-.022.39-.067a2.39 2.39 0 00.45-.2c.159-.09.294-.171.406-.243.112-.072.253-.166.422-.283l.332-.228 3.656-2.424c.38-.253.698-.559.953-.917S19 8.336 19 7.943a1.12 1.12 0 00-.371-.843 1.237 1.237 0 00-.88-.35H6.25c-.401 0-.71.13-.926.388-.216.258-.324.581-.324.97 0 .312.143.652.43 1.017a3.8 3.8 0 00.914.862zm7.984 3.37a167.4 167.4 0 013.89-2.573c.298-.193.558-.41.782-.648v5.92c0 .329-.122.61-.367.843-.245.234-.54.351-.883.351H6.25c-.344 0-.638-.117-.883-.35A1.123 1.123 0 015 16.056v-5.921c.23.243.492.46.79.648 1.885 1.223 3.179 2.081 3.882 2.573.297.209.538.372.723.489.184.117.43.236.738.358.307.121.594.182.86.182h.015c.266 0 .552-.06.86-.182a4.55 4.55 0 00.737-.358c.185-.117.426-.28.723-.489z" fill="#fff"/></svg>
